packages/foundations/assets/icons/functional/images/layout/fullscreen_exit.svg

<svg xmlns="http://www.w3.org/2000/svg" width="32" height="32" fill="none"><path fill="#1A1C1F" fill-rule="evenodd" d="M10.747 3.035c-.387.096-.629.351-.716.753-.038.177-.058 1.303-.058 3.253v2.983l-3.191.015-3.19.014-.196.15c-.586.447-.504 1.4.145 1.695.207.094.427.1 3.941.101 3.23.001 3.747-.01 3.918-.081.264-.111.383-.224.5-.478.092-.2.098-.438.099-3.952L12 3.75l-.124-.235c-.193-.367-.706-.585-1.129-.48m9.981.01a.87.87 0 0 0-.617.492c-.109.227-.111.287-.11 3.96.001 3.505.007 3.743.099 3.943.117.254.236.367.5.478.171.071.688.082 3.918.081 3.514-.001 3.734-.007 3.941-.101.696-.316.724-1.366.046-1.75l-.212-.12H25.16l-3.133-.001V7.043c0-1.951-.02-3.078-.058-3.255-.124-.574-.645-.887-1.241-.743M3.533 20.113c-.246.121-.388.29-.485.575a.984.984 0 0 0 .728 1.278c.192.041 1.235.061 3.24.061h2.957v2.957c0 2.005.02 3.048.061 3.24.192.898 1.456 1.063 1.853.243.112-.232.113-.272.113-3.952 0-3.226-.011-3.744-.082-3.915-.111-.264-.224-.383-.478-.5-.2-.092-.438-.098-3.947-.099-3.691-.001-3.736 0-3.96.112M20.56 20.1c-.254.117-.368.236-.478.5-.071.171-.082.689-.082 3.915 0 3.68.001 3.72.113 3.952.397.82 1.661.655 1.853-.243.041-.192.061-1.235.061-3.24v-2.957h2.957c2.005 0 3.048-.02 3.24-.061.841-.18 1.06-1.324.345-1.797l-.214-.142-3.791-.013c-3.589-.012-3.802-.008-4.004.086"/></svg>

<svg width="32" height="32" viewBox="0 0 32 32" fill="none" xmlns="http://www.w3.org/2000/svg"><path d="M10.747 3.035 C 10.360 3.131,10.118 3.386,10.031 3.788 C 9.993 3.965,9.973 5.091,9.973 7.041 L 9.973 10.024 6.782 10.039 L 3.592 10.053 3.396 10.203 C 2.810 10.650,2.892 11.603,3.541 11.898 C 3.748 11.992,3.968 11.998,7.482 11.999 C 10.712 12.000,11.229 11.989,11.400 11.918 C 11.664 11.807,11.783 11.694,11.900 11.440 C 11.992 11.240,11.998 11.002,11.999 7.488 L 12.000 3.750 11.876 3.515 C 11.683 3.148,11.170 2.930,10.747 3.035 M20.728 3.045 C 20.436 3.115,20.240 3.272,20.111 3.537 C 20.002 3.764,20.000 3.824,20.001 7.497 C 20.002 11.002,20.008 11.240,20.100 11.440 C 20.217 11.694,20.336 11.807,20.600 11.918 C 20.771 11.989,21.288 12.000,24.518 11.999 C 28.032 11.998,28.252 11.992,28.459 11.898 C 29.155 11.582,29.183 10.532,28.505 10.148 L 28.293 10.028 25.160 10.028 L 22.027 10.027 22.027 7.043 C 22.027 5.092,22.007 3.965,21.969 3.788 C 21.845 3.214,21.324 2.901,20.728 3.045 M3.533 20.113 C 3.287 20.234,3.145 20.403,3.048 20.688 C 2.859 21.246,3.199 21.842,3.776 21.966 C 3.968 22.007,5.011 22.027,7.016 22.027 L 9.973 22.027 9.973 24.984 C 9.973 26.989,9.993 28.032,10.034 28.224 C 10.226 29.122,11.490 29.287,11.887 28.467 C 11.999 28.235,12.000 28.195,12.000 24.515 C 12.000 21.289,11.989 20.771,11.918 20.600 C 11.807 20.336,11.694 20.217,11.440 20.100 C 11.240 20.008,11.002 20.002,7.493 20.001 C 3.802 20.000,3.757 20.001,3.533 20.113 M20.560 20.100 C 20.306 20.217,20.192 20.336,20.082 20.600 C 20.011 20.771,20.000 21.289,20.000 24.515 C 20.000 28.195,20.001 28.235,20.113 28.467 C 20.510 29.287,21.774 29.122,21.966 28.224 C 22.007 28.032,22.027 26.989,22.027 24.984 L 22.027 22.027 24.984 22.027 C 26.989 22.027,28.032 22.007,28.224 21.966 C 29.065 21.786,29.284 20.642,28.569 20.169 L 28.355 20.027 24.564 20.014 C 20.975 20.002,20.762 20.006,20.560 20.100 " fill="#1A1C1F" stroke="none" fill-rule="evenodd"></path></svg>
